X: 38678
T: Stranger At The Gate
R: reel
M: 4/4
K: Dmajor
FAB=c|B2EF GBEG|F~D3 B~D3|~B3d =cAFD|GFFE EDB,A,|
B,~E3 GABG|AB/c/de fdec|dBAF DEFA|B/c/dAF DEEA|
B2EF GBEG|F~D3 B~D3|~B3d =cAF2|FGFE EDB,D|
B,~E3 GAB/c/d|AB/c/de faec|dBAF DEFA|B/c/dAF DEE2||
e3f gBeg|f/g/f/e/ df edBA|B/c/deg (3fgf ec|dBAF DEFA|
BGEF GABG|Acde fdec|dBAF DEFA|BdAF DEE2|
e3f ~g2eg|f/g/f/e/ df edBA|B/c/deg (3fgf ec|dBAF DEFA|
BEEF GABG|Acde fab2|B2AF D2FA|BdAF DEEd||

